X:1
T:Title
%%score { ( 1 3 ) | ( 2 4 ) }
L:1/8
M:4/4
K:F
V:1 treble nm="Grand Piano"
V:3 treble 
V:2 bass 
V:4 bass 
V:1
 z4 z2[Q:1/4=100] c2 | A2 A2 AG z A | [EG]2 [EG]2 [EG][FA][GB]G | A2 A2 ABcA | %4
[M:9/8] [EG][DF][CE] [DF] [EG]2- [EG] [Ec]2 |[M:4/4] A2 A2 AG z A | [EG]2 [EG]2 [EG][FA][GB]G | %7
 A2 c2 cA [=B,F]2 |[M:7/8] [CFA]2 [B,EG]2 [A,CF]3 |[M:3/8] [Fc]3 |[M:4/4] [Fd]2 [Fd]2 [FB]3 [Fd] | %11
 c2 c2 A3 c | [GB]2 [GB]2 [EG]2 [GB]2 |[M:9/8] [FA][GB][Ac] [FA] [EG]2- [EG] [Ec]2 | %14
[M:4/4] A2 A2 AG z A | [EG]2 [EG]2 [EG][FA][GB]G | A2 c2 cA [=B,F]2 | %17
[M:15/8] [CFA]2 [B,EG]-[B,EG] [A,CF]2- [A,CF] z2 z6 |] %18
V:2
 z4 z2 [F,A,F]2 | [F,CF]2 [F,CF]2 [F,F]-[F,B,F]F,-[F,C] | [C,C]2 [C,C]2 [C,C]2 z[K:treble] E | %3
 [F,CF]2 [F,CF]2 [CF]-[G,CF][CF]-[F,CF] | %4
[M:9/8][K:bass] [C,C]2 [C,G,]- [C,G,] [C,C]2- [C,C] [C,C]2 | %5
[M:4/4] [F,CF]2 [F,CF]2 [F,F]-[F,B,F]F,-[F,C] | [C,C]2 [C,C]2 [C,C]2 z[K:treble] E | %7
 [F,CF]2 [F,A,F]2 [F,F]-[F,CF][K:bass] z G |[M:7/8] C,2 C,2 F,3 |[M:3/8] [F,A,]3 | %10
[M:4/4] [B,,B,]2 [B,,B,]2 [D,B,]3 [B,,B,] | [F,A,F]2 [F,A,F]2 [F,CF]3 [F,A,F] | %12
 [C,C]2 [C,C]2 [C,C]2 [C,C]2 |[M:9/8] [F,C]2 [F,C]- [F,C] [C,C]2- [C,C] [C,C]2 | %14
[M:4/4] [F,CF]2 [F,CF]2 [F,F]-[F,B,F]F,-[F,C] | [C,C]2 [C,C]2 [C,C]2 z[K:treble] E | %16
 [F,CF]2 [F,A,F]2 [F,F]-[F,CF][K:bass] z G |[M:15/8] C,2 C,-C, F,2- F, z2 z6 |] %18
V:3
 x8 | z4 z2 F2 | x8 | x8 |[M:9/8] x9 |[M:4/4] z4 z2 F2 | x8 | x8 |[M:7/8] x7 |[M:3/8] x3 | %10
[M:4/4] x8 | x8 | x8 |[M:9/8] x9 |[M:4/4] z4 z2 F2 | x8 | x8 |[M:15/8] x15 |] %18
V:4
 x8 | z4 .C2 .A,2 | z4 z2 [C,C]2[K:treble] | z4 .F,2 .A,2 |[M:9/8][K:bass] x9 | %5
[M:4/4] z4 .C2 .A,2 | z4 z2 [C,C]2[K:treble] | z4 .A,2[K:bass] D,2 |[M:7/8] x7 |[M:3/8] x3 | %10
[M:4/4] x8 | x8 | x8 |[M:9/8] x9 |[M:4/4] z4 .C2 .A,2 | z4 z2 [C,C]2[K:treble] | %16
 z4 .A,2[K:bass] D,2 |[M:15/8] x15 |] %18

